X:1
T:The Sorcerer's Apprentice
T:The Sorcerer's Apprentice 
T:Bassoon
T:Paul Dukas 
C:Paul Dukas
L:1/8
Q:1/4=170
M:3/8
K:Eb
V:1 bass nm="Bassoon" snm="Bsn."
V:1
!mf! .C, z z | G, z z | .G,,.=A,,.=B,, | .C, z .E, | .C, z .E, | .D,.C,.=B,, | .C, z .E, | %7
 .C, z .E, | .D,.C,.=B,, | .C, z .E, | .C,.E,.D, | .C,.D,.E, | .D,.F,.E, | .D, z .^F, | .C, z .E, | %15
 .D,.=F,.E, | .D, z .^F, | .C, z .E, | .D,.E,.=F, | .G,.G,.G, | .G,.G,.G, | .G,.F,.E, | .D,.F,.E, | %23
 .D,.C,.=B,, | .C, z z | .G, z z | .G,,.=A,,.=B,, | .C, z z | .G,, z z | !>!C,,3 | !>!G,,3 | %31
 !>!=B,,3 | !>!D,3 | !>!F,3 | !>!A,3 | !>!=B,3 | C z z | G, z z | .G,,.=A,,.=B,, |[K:Eb] .C, z z | %40
 .G,, z z |!f!!>(! C,,3!>)! |[K:Ab]!mp! .F,, z z | .C, z z | C,,=D,,=E,, | F,, z .A,, | %46
 .F,, z .A,, | G,,F,,=E,, | F,, z .A,, | .F,, z .A,, | G,,F,,=E,, | F,, z .A,, | .F,,.A,,.G,, | %53
 .F,,.G,,.A,, | .G,,.B,,.A,, | .G,, z .=B,, | .F,, z .A,, | .G,,._B,,.A,, | .G,, z .=B,, | %59
 .F,, z .A,, | .G,,.A,,._B,, | .C,.C,.C, | .C,.C,.C, | .C,.B,,.A,, | .G,,.B,,.A,, | G,,F,,=E,, | %66
!f! F,,3 | z3 | z3 | z3 | z3 |] %71

